X:4192
T:Mike Campbell's Reel
O:england
M:4/4
L:1/8
Q:200
C:Stephen McNally
R:Reel
N:For Mike Campbell of Oban
H:Written in 1995 (I think.
K:D
|:(3FEF BF dfed|(3cBc (3ABc EBAG|(3FEF BF dfed|1c2 (3ABc dBB2:|2c2 (3ABc
dBBc||
d2fd afed|(3cBc (3ABc eABc|d2fd afed|(3cBc (3ABc dBBc|
d2fd afed|(3cBc (3ABc EBAG|(3FEF BF dfed|c2 (3ABc dBB2||
|:(3B^AB FF dFBF|(3B^AB GG dGBG|(3cBc ~A2EA (3fed|1(3cBc (3ABc dBB2:|2(3
cBc (3ABc dBBc||
d2Ad fdFd|~d2Bd gdGd|~d2cd Adcd|(3cBc (3ABc dBBc|
d2Ad FdDd|~d2Bd GdDd|(3cBc ~A2EA (3fed|(3cBc (3ABc dBB2||


